static/img/kroki/33fd734805d893affa62e6861357542a.svg

<?xml version="1.0" encoding="us-ascii" standalone="no"?><svg xmlns="http://www.w3.org/2000/svg" xmlns:xlink="http://www.w3.org/1999/xlink" contentStyleType="text/css" height="374px" preserveAspectRatio="none" style="width:237px;height:374px;" version="1.1" viewBox="0 0 237 374" width="237px" zoomAndPan="magnify"><defs/><g><!--class aws_dynamodb_table--><g id="elem_aws_dynamodb_table"><rect codeLine="23" fill="#3D176E" height="39.7891" id="aws_dynamodb_table" rx="2.5" ry="2.5" style="stroke:#000D19;stroke-width:0.5;" width="223" x="7" y="328.58"/><ellipse cx="22" cy="348.4745" fill="#ADD1B2" rx="11" ry="11" style="stroke:#181818;stroke-width:1.0;"/><path d="M24.9688,354.1152 Q24.3906,354.412 23.75,354.5527 Q23.1094,354.7089 22.4063,354.7089 Q19.9063,354.7089 18.5781,353.0683 Q17.2656,351.412 17.2656,348.287 Q17.2656,345.162 18.5781,343.5058 Q19.9063,341.8495 22.4063,341.8495 Q23.1094,341.8495 23.75,342.0058 Q24.4063,342.162 24.9688,342.4589 L24.9688,345.1777 Q24.3438,344.5995 23.75,344.3339 Q23.1563,344.0527 22.5313,344.0527 Q21.1875,344.0527 20.5,345.1308 Q19.8125,346.1933 19.8125,348.287 Q19.8125,350.3808 20.5,351.4589 Q21.1875,352.5214 22.5313,352.5214 Q23.1563,352.5214 23.75,352.2558 Q24.3438,351.9745 24.9688,351.3964 L24.9688,354.1152 Z " fill="#000000"/><text fill="#D9B8FF" font-family="Helvetica" font-size="17" lengthAdjust="spacing" textLength="181" x="41" y="354.3598">aws_dynamodb_table</text></g><!--class aws_resource--><g id="elem_aws_resource"><rect codeLine="26" fill="#3D176E" height="39.7891" id="aws_resource" rx="2.5" ry="2.5" style="stroke:#000D19;stroke-width:0.5;" width="155" x="41" y="167.79"/><ellipse cx="56" cy="187.6845" fill="#ADD1B2" rx="11" ry="11" style="stroke:#181818;stroke-width:1.0;"/><path d="M58.9688,193.3252 Q58.3906,193.622 57.75,193.7627 Q57.1094,193.9189 56.4063,193.9189 Q53.9063,193.9189 52.5781,192.2783 Q51.2656,190.622 51.2656,187.497 Q51.2656,184.372 52.5781,182.7158 Q53.9063,181.0595 56.4063,181.0595 Q57.1094,181.0595 57.75,181.2158 Q58.4063,181.372 58.9688,181.6689 L58.9688,184.3877 Q58.3438,183.8095 57.75,183.5439 Q57.1563,183.2627 56.5313,183.2627 Q55.1875,183.2627 54.5,184.3408 Q53.8125,185.4033 53.8125,187.497 Q53.8125,189.5908 54.5,190.6689 Q55.1875,191.7314 56.5313,191.7314 Q57.1563,191.7314 57.75,191.4658 Q58.3438,191.1845 58.9688,190.6064 L58.9688,193.3252 Z " fill="#000000"/><text fill="#D9B8FF" font-family="Helvetica" font-size="17" lengthAdjust="spacing" textLength="113" x="75" y="193.5698">aws_resource</text></g><!--class resource--><g id="elem_resource"><rect codeLine="29" fill="#3D176E" height="39.7891" id="resource" rx="2.5" ry="2.5" style="stroke:#000D19;stroke-width:0.5;" width="113" x="62" y="7"/><ellipse cx="77" cy="26.8945" fill="#ADD1B2" rx="11" ry="11" style="stroke:#181818;stroke-width:1.0;"/><path d="M79.9688,32.5352 Q79.3906,32.832 78.75,32.9727 Q78.1094,33.1289 77.4063,33.1289 Q74.9063,33.1289 73.5781,31.4883 Q72.2656,29.832 72.2656,26.707 Q72.2656,23.582 73.5781,21.9258 Q74.9063,20.2695 77.4063,20.2695 Q78.1094,20.2695 78.75,20.4258 Q79.4063,20.582 79.9688,20.8789 L79.9688,23.5977 Q79.3438,23.0195 78.75,22.7539 Q78.1563,22.4727 77.5313,22.4727 Q76.1875,22.4727 75.5,23.5508 Q74.8125,24.6133 74.8125,26.707 Q74.8125,28.8008 75.5,29.8789 Q76.1875,30.9414 77.5313,30.9414 Q78.1563,30.9414 78.75,30.6758 Q79.3438,30.3945 79.9688,29.8164 L79.9688,32.5352 Z " fill="#000000"/><text fill="#D9B8FF" font-family="Helvetica" font-size="17" lengthAdjust="spacing" textLength="71" x="96" y="32.7798">resource</text></g><!--reverse link aws_resource to aws_dynamodb_table--><g id="link_aws_resource_aws_dynamodb_table"><path codeLine="32" d="M118.5,225.84 C118.5,256.36 118.5,297.69 118.5,328.25 " fill="none" id="aws_resource-backto-aws_dynamodb_table" style="stroke:#FFAF37;stroke-width:2.0;"/><polygon fill="none" points="118.5,207.84,112.5,225.84,124.5,225.84,118.5,207.84" style="stroke:#FFAF37;stroke-width:2.0;"/></g><!--reverse link resource to aws_resource--><g id="link_resource_aws_resource"><path codeLine="33" d="M118.5,65.05 C118.5,95.57 118.5,136.9 118.5,167.46 " fill="none" id="resource-backto-aws_resource" style="stroke:#FFAF37;stroke-width:2.0;"/><polygon fill="none" points="118.5,47.05,112.5,65.05,124.5,65.05,118.5,47.05" style="stroke:#FFAF37;stroke-width:2.0;"/></g><!--SRC=[XP1BRuCm48Jl_0fBEID1evOWzP8WLUqbgfhUemMlWmNOQ6sAwEE_jpHDPHv9hZEVPcOtbnmPLhNjM8LLYcGyKqXL0q75raIwJNIfYIs40B6CnkQ3LlOgi8KAsIEMRsXb1cFYDPTPeT0OTkDO6yYA0-b6yMEy9L3cnq9b7IefmPYrjIJJng8pXiVfIeWnEGvTB7aOtU44qyIH_f0W27WOZv6hLHVl_YTsyXrPw3vjgorEPaugVgcBAtl26JavzEIVtVWCd4jrOBUEzdBSH0ffeEzouBhjQG6bSMkCHK9jkngJoLKOhxY8Pk6dSx2NzQzZq9ezxnHKcgTx2sc9xCFplXoNqEY6ie4-r0RK_QVl-pEntWnnahnl]--></g></svg>

<svg xmlns="http://www.w3.org/2000/svg" width="237" height="374" viewBox="0 0 237 374"><rect width="223" height="39.789" x="7" y="328.58" fill="#3D176E" rx="2.5" ry="2.5" style="stroke:#000d19;stroke-width:.5"/><circle cx="22" cy="348.474" r="11" fill="#ADD1B2" style="stroke:#181818;stroke-width:1"/><path d="M24.969 354.115q-.578.297-1.219.438-.64.156-1.344.156-2.5 0-3.828-1.64-1.312-1.657-1.312-4.782t1.312-4.781q1.328-1.656 3.828-1.656.703 0 1.344.156.656.156 1.219.453v2.719q-.625-.579-1.219-.844-.594-.281-1.219-.281-1.343 0-2.031 1.078-.687 1.062-.687 3.156t.687 3.172q.688 1.062 2.031 1.062.625 0 1.219-.265.594-.281 1.219-.86z"/><text x="41" y="354.36" fill="#D9B8FF" font-family="Helvetica" font-size="17" textLength="181">aws_dynamodb_table</text><rect width="155" height="39.789" x="41" y="167.79" fill="#3D176E" rx="2.5" ry="2.5" style="stroke:#000d19;stroke-width:.5"/><circle cx="56" cy="187.685" r="11" fill="#ADD1B2" style="stroke:#181818;stroke-width:1"/><path d="M58.969 193.325q-.578.297-1.219.438-.64.156-1.344.156-2.5 0-3.828-1.64-1.312-1.657-1.312-4.782t1.312-4.781q1.328-1.656 3.828-1.656.703 0 1.344.156.656.156 1.219.453v2.719q-.625-.578-1.219-.844-.594-.281-1.219-.281-1.343 0-2.031 1.078-.687 1.062-.687 3.156t.687 3.172q.688 1.062 2.031 1.062.625 0 1.219-.265.594-.281 1.219-.86z"/><text x="75" y="193.57" fill="#D9B8FF" font-family="Helvetica" font-size="17" textLength="113">aws_resource</text><rect width="113" height="39.789" x="62" y="7" fill="#3D176E" rx="2.5" ry="2.5" style="stroke:#000d19;stroke-width:.5"/><circle cx="77" cy="26.895" r="11" fill="#ADD1B2" style="stroke:#181818;stroke-width:1"/><path d="M79.969 32.535q-.578.297-1.219.438-.64.156-1.344.156-2.5 0-3.828-1.64-1.312-1.657-1.312-4.782t1.312-4.781q1.328-1.656 3.828-1.656.703 0 1.344.156.656.156 1.219.453v2.719q-.625-.578-1.219-.844-.594-.281-1.219-.281-1.344 0-2.031 1.078-.687 1.062-.687 3.156t.687 3.172q.688 1.062 2.031 1.062.625 0 1.219-.265.594-.281 1.219-.86z"/><text x="96" y="32.78" fill="#D9B8FF" font-family="Helvetica" font-size="17" textLength="71">resource</text><path fill="none" d="M118.5 225.84v102.41m0-120.41-6 18h12zm0-142.79v102.41m0-120.41-6 18h12z" style="stroke:#ffaf37;stroke-width:2"/></svg>
